app/client/src/assets/icons/blueprintjs/20px/rain.svg

<svg width="20" height="20" viewBox="0 0 20 20" fill="none" xmlns="http://www.w3.org/2000/svg">
<path fill-rule="evenodd" clip-rule="evenodd" d="M4 10C2.34315 10 1 8.65685 1 7C1 5.34315 2.34315 4 4 4C4.37489 4 4.73372 4.06877 5.06456 4.19437C5.44982 1.81599 7.51284 0 10 0C12.0922 0 13.8843 1.28508 14.63 3.10898C14.9082 3.03783 15.1997 3 15.5 3C17.433 3 19 4.567 19 6.5C19 8.433 17.433 10 15.5 10H10H4ZM4 12C4.55228 12 5 12.4477 5 13L5 18C5 18.5523 4.55228 19 4 19C3.44772 19 3 18.5523 3 18L3 13C3 12.4477 3.44772 12 4 12ZM13 13C13 12.4477 12.5523 12 12 12C11.4477 12 11 12.4477 11 13V19C11 19.5523 11.4477 20 12 20C12.5523 20 13 19.5523 13 19V13ZM16 12C16.5523 12 17 12.4477 17 13V16C17 16.5523 16.5523 17 16 17C15.4477 17 15 16.5523 15 16V13C15 12.4477 15.4477 12 16 12ZM9 13C9 12.4477 8.55228 12 8 12C7.44772 12 7 12.4477 7 13V16C7 16.5523 7.44771 17 8 17C8.55228 17 9 16.5523 9 16V13Z" fill="#5C7080"/>
</svg>

<svg xmlns="http://www.w3.org/2000/svg" width="20" height="20"><path fill-rule="evenodd" d="M4 10a3 3 0 1 1 1.065-5.806A5.001 5.001 0 0 1 14.63 3.11 3.5 3.5 0 1 1 15.5 10H4Zm0 2a1 1 0 0 1 1 1v5a1 1 0 1 1-2 0v-5a1 1 0 0 1 1-1Zm9 1a1 1 0 1 0-2 0v6a1 1 0 1 0 2 0v-6Zm3-1a1 1 0 0 1 1 1v3a1 1 0 1 1-2 0v-3a1 1 0 0 1 1-1Zm-7 1a1 1 0 1 0-2 0v3a1 1 0 1 0 2 0v-3Z" clip-rule="evenodd"/></svg>
